svg/u1f532.svg

<svg viewBox="0 0 128 128" xmlns="http://www.w3.org/2000/svg">
  <g>
    <path d="M116,4H12c-4.42,0-8,3.58-8,8v104c0,4.42,3.58,8,8,8h104c4.42,0,8-3.58,8-8V12 C124,7.58,120.42,4,116,4z" fill="#575757"/>
    <path d="M109.7,4H11.5C7.37,4.03,4.03,7.37,4,11.5v97.9c-0.01,4.14,3.34,7.49,7.48,7.5c0.01,0,0.01,0,0.02,0 h98.1c4.14,0.01,7.49-3.34,7.5-7.48c0-0.01,0-0.01,0-0.02V11.5c0.09-4.05-3.13-7.41-7.18-7.5C109.85,4,109.77,4,109.7,4z" fill="#424242"/>
    <path d="M28.1,24.7h73c1.6,0,2.9,1.3,2.9,2.9l0,0v73c0,1.6-1.3,2.9-2.9,2.9l0,0h-73c-1.6,0-2.9-1.3-2.9-2.9 l0,0V27.7c-0.08-1.58,1.14-2.92,2.72-3C27.98,24.7,28.04,24.7,28.1,24.7z" fill="#BDBDBD"/>
    <path d="M28.1,24.7h67.4c1.6,0,2.9,1.3,2.9,2.9l0,0V95c0,1.6-1.3,2.9-2.9,2.9l0,0H28.1 c-1.6,0-2.9-1.3-2.9-2.9l0,0V27.7c-0.08-1.58,1.14-2.92,2.72-3C27.98,24.7,28.04,24.7,28.1,24.7z" fill="#E0E0E0"/>
    <path d="M49,33.5c0-1.5-1-1.9-6.9-1.7c-4.9,0.2-7.3,0.8-8.8,2.6s-1.9,5.4-1.9,9.8c0,3.1,0,5.9,1.6,5.9 c2.2,0,2.2-5,4-7.9C40.3,36.7,49,35.5,49,33.5z" fill="#FFFFFF"/>
  </g>
</svg>

<svg viewBox="0 0 128 128" xmlns="http://www.w3.org/2000/svg">
  <defs/>
  <path d="M116,4 L12,4 C7.58,4 4,7.58 4,12 L4,116 C4,120.42 7.58,124 12,124 L116,124 C120.42,124 124,120.42 124,116 L124,12 C124,7.58 120.42,4 116,4 Z" fill="#575757"/>
  <path d="M109.7,4 L11.5,4 C7.37,4.03 4.03,7.37 4,11.5 L4,109.4 C3.99,113.54 7.34,116.89 11.48,116.9 C11.49,116.9 11.49,116.9 11.5,116.9 L109.6,116.9 C113.74,116.91 117.09,113.56 117.1,109.42 C117.1,109.41 117.1,109.41 117.1,109.4 L117.1,11.5 C117.19,7.45 113.97,4.09 109.92,4 C109.85,4 109.77,4 109.7,4 Z" fill="#424242"/>
  <path d="M28.1,24.7 L101.1,24.7 C102.7,24.7 104,26 104,27.6 L104,27.6 L104,100.6 C104,102.2 102.7,103.5 101.1,103.5 L101.1,103.5 L28.1,103.5 C26.5,103.5 25.2,102.2 25.2,100.6 L25.2,100.6 L25.2,27.7 C25.12,26.12 26.34,24.78 27.92,24.7 C27.98,24.7 28.04,24.7 28.1,24.7 Z" fill="#BDBDBD"/>
  <path d="M28.1,24.7 L95.5,24.7 C97.1,24.7 98.4,26 98.4,27.6 L98.4,27.6 L98.4,95 C98.4,96.6 97.1,97.9 95.5,97.9 L95.5,97.9 L28.1,97.9 C26.5,97.9 25.2,96.6 25.2,95 L25.2,95 L25.2,27.7 C25.12,26.12 26.34,24.78 27.92,24.7 C27.98,24.7 28.04,24.7 28.1,24.7 Z" fill="#E0E0E0"/>
  <path d="M49,33.5 C49,32 48,31.6 42.1,31.8 C37.2,32 34.8,32.6 33.3,34.4 C31.8,36.2 31.4,39.8 31.4,44.2 C31.4,47.3 31.4,50.1 33,50.1 C35.2,50.1 35.2,45.1 37,42.2 C40.3,36.7 49,35.5 49,33.5 Z" fill="#FFFFFF"/>
</svg>
